X: 1
T: the Hand of Friendship
C: Duncan Smith
R: jig
Z: 2005 John Chambers <jc:trillian.mit.edu>
M: 6/8
L: 1/8
K: C
e \
| "C"c2c e>fe | "C"g2e e2c | "Dm"d2d f>gf | "Dm"a2f "G7"f2d \
| "C"e>de g2e | "Am"cBc "Em"G2G | "F"A>Bc "G7"cdB | "C"c3 c2 :|
|: B \
| "Am"A>^GA E2E | "Am"ABc "D7"d2c | "G"B>AB GBc | "G7"dBG GAB \
| "C"c2g geg | "Dm"afd "G7"BAG | "F"A>Bc "G7"cdB | "C"c3 c2 :|
